apps/web/public/assets/roles/lol-role-adc.svg

<svg width="18" height="18" viewBox="0 0 18 18" fill="none" xmlns="http://www.w3.org/2000/svg">
<path d="M-0.000526428 15.5454L-0.000522614 -4.19617e-05H15.5449L12.2722 3.27269H3.2722L3.2722 12.2727L-0.000526428 15.5454Z" fill="#917444" fill-opacity="0.6"/>
<path d="M18 18H6.1086H2.45455L5.72728 14.7273H14.7273L14.7273 5.72727L18 2.45455L18 18Z" fill="#917444"/>
<path d="M6.54599 11.4545H11.4551L11.4551 6.54538H6.54599L6.54599 11.4545Z" fill="#917444" fill-opacity="0.6"/>
</svg>

<svg xmlns="http://www.w3.org/2000/svg" width="18" height="18" fill="currentColor">
  <path fill-opacity=".6" d="M0 15.545V0h15.545l-3.273 3.273h-9v9L0 15.545Z" />
  <path d="M18 18H2.455l3.272-3.273h9v-9L18 2.455V18Z" />
  <path fill-opacity=".6" d="M6.546 11.454h4.91V6.545h-4.91v4.91Z" />
</svg>
